!!!COM: Fanny (Mendelssohn) Hensel
!!!CNT: Deutsch
!!!TXO: Deutsch
!!!OTL: "Der Eichwald brauset"
!!!LYR: von Schiller, Friedrich
!!!OPR: 
!!!OPS: Op. 
!!!ONM: No. 
!!!ENC: Emily Thomas
!!!YOR: Hensel: Ausgewa2hlte Lieder fu2r Singstimme und Klavier
!!!YOR: Breitkopf & Hartel, 1994
!!!ODT: 1826/
!!NB: Vocal melody and text encoded.
**kern	**silbe
=1-	=1
*clefG2	*
*k[]	*
*M6/8	*
*MM[Allegro agitato]	*
2.r	.
=2	=2
4r	.
8r	.
4r	.
{8e	{Der
=3	=3
[4.e	Eich-
4e]	|
8e	-wald
=4	=4
4.f	brau-
4e	-set,
8e	die
=5	=5
[4.cc	Wol-
4cc]	|
8b	-ken
=6	=6
4g#}	ziehn,}
8r	.
4r	.
{8e	{das
=7	=7
4a	Ma2gd-
8a	-lein
8a	sit-
8a	-zet
8a	an
=8	=8
4.cc	U-
4a	|
8e	-fers
=9	=9
4c}	Gru2n.}
8r	.
4r	.
{8e	{Es
=10	=10
8e	bricht
8.e	sich
16e	die
8a	Wel-
8.a	-le
16a	mit
=11	=11
[4.dd	Macht,
4dd]	|
8a	mit
=12	=12
[4.dd	Macht,
4dd]	|
16dd	und
16ee	sie
=13	=13
8ff	singt
8dd	|
8b	hin-
8g#	-aus
8f	in
8e	die
=14	=14
8d	fin-
8c#	|
8e	-stre
4B-}	Nacht,}
{8A	{das
=15	=15
8f	Au-
8e	-ge
8d	vom
8b-	Wei-
8a	-nen
8g#	ge-
=16	=16
4.a	-tru2-
4.e	|
=17	=17
[4.c	-bet.
4c]}	|}
8r	.
=18	=18
4r	.
8r	.
4r	.
{8e	{"Das
=19	=19
4.e	Herz
4e	ist
8e	ge-
=20	=20
4.f	-stor-
4e	-ben,
8e	die
=21	=21
[4.cc	Welt
4cc]	|
8b	ist
=22	=22
4.g#}	leer,}
4r	.
{8e	{und
=23	=23
4a	wei-
8a	-ter
8a	gibt
8a	sie
8a	dem
=24	=24
8cc	Wun-
8a	-sche
8e	nichts
4c}	mehr.}
8r	.
=25	=25
2.r	.
=26	=26
4r	.
8r	.
4r	.
{8e	{Du
=27	=27
8.e	Hei-
16e	-li-
8e	-ge,
8.a	ru-
16a	-fe
8a	dein
=28	=28
[4.dd	Kind
8dd]	|
8a	|
8f	zu-
=29	=29
4e	-ru2ck,
8d}	|}
4r	.
{8dd	{ich
=30	=30
8ff	ha-
8dd	-be
8b	ge-
8g#	-nos-
8f	-sen
8e	das
=31	=31
8d	ir-
8c#	-di-
8e	-sche
4B-}	Glu2ck,}
{8A	{ich
=32	=32
8f	ha-
8e	-be
8d	ge-
8b-	-lebt
8a	und
8g#	ge-
=33	=33
4.a	-lie-
4.e	|
=34	=34
4.f	|
4.e	|
=35	=35
4.e}	-bet!"}
4r	.
8r	.
==	==
*-	*-
